X:123
T:Let's be merry o'er the Year. THO5.123
T:Bellman aka, The
M:C|
L:1/8
B:Thompson's Complete Collection of 200 Favourite Dances Vol.5
F:https://www.libraryofdance.org/manuals/1780c-Thompson-Compleat-5.pdf
Z:vmp. Peter Dunk 2024
Q:1/4=140
K:A
A2 ce fece|feca ec B2|A2 ce feca|ecBA  F2A2:|
|:agfe faec|defg ac Tc2|A2 ce feca|ecBA F2A2:|
W:
W:First Gent turn the 1st Lady ./.
W:The 1st Lady turn the 2nd Gent ./:
W:cross over one Couple :/.
W:Right and left :/:

